X:477
T:Savings Bank Waltz
Z:Jack Campin, http://www.campin.me.uk/
F:Jack Campin's Nine-Note Tunebook
% last edit 03-02-2013
Z:Lennart Sohlman
S:http://www.folkwiki.se
Q:1/4=142
M:3/4
L:1/4
K:DMin
A|d A F|G F E|D>D D|D E F|G>G G|[1 G F  G|A>A A|   A2 :|\
                                [2 G c  B|A>A A|   A F||
G|A>A A|A d c|B>B B|B A G|F A>F|   E D ^C|D>D D|[1 D F:|\
                                                [2 D2 |]

